assets/images/icons/src/group.svg

<?xml version="1.0" encoding="utf-8"?>
<!-- Generated by IcoMoon.io -->
<!DOCTYPE svg PUBLIC "-//W3C//DTD SVG 1.1//EN" "http://www.w3.org/Graphics/SVG/1.1/DTD/svg11.dtd">
<svg version="1.1" xmlns="http://www.w3.org/2000/svg" xmlns:xlink="http://www.w3.org/1999/xlink" width="15" height="14" viewBox="0 0 15 14">
<path fill="#444444" d="M4.633 7q-1.266 0.039-2.070 1h-1.047q-0.641 0-1.078-0.316t-0.438-0.926q0-2.758 0.969-2.758 0.047 0 0.34 0.164t0.762 0.332 0.93 0.168q0.523 0 1.039-0.18-0.039 0.289-0.039 0.516 0 1.086 0.633 2zM13 11.977q0 0.937-0.57 1.48t-1.516 0.543h-6.828q-0.945 0-1.516-0.543t-0.57-1.48q0-0.414 0.027-0.809t0.109-0.852 0.207-0.848 0.336-0.762 0.484-0.633 0.668-0.418 0.871-0.156q0.078 0 0.336 0.168t0.57 0.375 0.836 0.375 1.055 0.168 1.055-0.168 0.836-0.375 0.57-0.375 0.336-0.168q0.477 0 0.871 0.156t0.668 0.418 0.484 0.633 0.336 0.762 0.207 0.848 0.109 0.852 0.027 0.809zM5 2q0 0.828-0.586 1.414t-1.414 0.586-1.414-0.586-0.586-1.414 0.586-1.414 1.414-0.586 1.414 0.586 0.586 1.414zM10.5 5q0 1.242-0.879 2.121t-2.121 0.879-2.121-0.879-0.879-2.121 0.879-2.121 2.121-0.879 2.121 0.879 0.879 2.121zM15 6.758q0 0.609-0.438 0.926t-1.078 0.316h-1.047q-0.805-0.961-2.070-1 0.633-0.914 0.633-2 0-0.227-0.039-0.516 0.516 0.18 1.039 0.18 0.461 0 0.93-0.168t0.762-0.332 0.34-0.164q0.969 0 0.969 2.758zM14 2q0 0.828-0.586 1.414t-1.414 0.586-1.414-0.586-0.586-1.414 0.586-1.414 1.414-0.586 1.414 0.586 0.586 1.414z"></path>
</svg>

<svg xmlns="http://www.w3.org/2000/svg" width="15" height="14" viewBox="0 0 15 14"><path fill="#444" d="M4.633 7q-1.266.039-2.07 1H1.516Q.875 8 .438 7.684T0 6.758Q0 4 .969 4q.047 0 .34.164t.762.332.93.168q.523 0 1.039-.18-.039.289-.039.516 0 1.086.633 2zM13 11.977q0 .937-.57 1.48T10.914 14H4.086q-.945 0-1.516-.543T2 11.977q0-.414.027-.809t.109-.852.207-.848.336-.762.484-.633.668-.418.871-.156q.078 0 .336.168t.57.375.836.375 1.055.168 1.055-.168.836-.375.57-.375.336-.168q.477 0 .871.156t.668.418.484.633.336.762.207.848.109.852.027.809zM5 2q0 .828-.586 1.414T3 4t-1.414-.586T1 2 1.586.586 3 0t1.414.586T5 2zm5.5 3q0 1.242-.879 2.121T7.5 8t-2.121-.879T4.5 5t.879-2.121T7.5 2t2.121.879T10.5 5zM15 6.758q0 .609-.438.926T13.484 8h-1.047q-.805-.961-2.07-1Q11 6.086 11 5q0-.227-.039-.516.516.18 1.039.18.461 0 .93-.168t.762-.332.34-.164q.969 0 .969 2.758zM14 2q0 .828-.586 1.414T12 4t-1.414-.586T10 2t.586-1.414T12 0t1.414.586T14 2z"/></svg>
